X: 77
M:2/4
L:1/16
K:A
vA2((3cBA) eA((3cBA) | eAaA gAfA | eA((3cBA) eAfA | BEcE dEBE |
E2((3GFE) BE((3GFE) | BEdE cEBE | A2((3cBA) eA((3cBA) |
eAaA gAfA | edec agaf | edec agaf | ecag fedc | BAGF EFGE |]


